img/main-top-after.svg

<svg width="122" height="287" viewBox="0 0 122 287" fill="none" xmlns="http://www.w3.org/2000/svg">
<g style="mix-blend-mode:multiply" opacity="0.12" clip-path="url(#clip0_2234_9664)">
<path d="M143.598 0C64.2155 0 0 64.2155 0 143.598C0 222.784 64.2155 287.197 143.598 287.197C222.784 287.197 287.197 222.981 287.197 143.598C287 64.2155 222.784 0 143.598 0ZM143.598 277.939C69.337 277.939 9.25806 217.86 9.25806 143.598C9.25806 69.337 69.337 9.25806 143.598 9.25806C217.86 9.25806 277.939 69.337 277.939 143.598C277.939 217.663 217.663 277.939 143.598 277.939Z" fill="#FFCF2D"/>
<path d="M143.6 30.9258C81.5509 30.9258 31.124 81.3527 31.124 143.401C31.124 205.45 81.5509 255.877 143.6 255.877C205.648 255.877 256.075 205.647 256.075 143.598C256.075 81.3527 205.648 30.9258 143.6 30.9258ZM143.6 238.74C91.006 238.74 48.2613 195.995 48.2613 143.401C48.2613 90.8077 91.006 48.063 143.6 48.063C196.193 48.063 238.938 90.8077 238.938 143.401C238.938 195.995 196.193 238.74 143.6 238.74Z" fill="#FFCF2D"/>
</g>
<defs>
<clipPath id="clip0_2234_9664">
<rect width="287" height="287" fill="white"/>
</clipPath>
</defs>
</svg>

<svg width="122" height="287" fill="none" xmlns="http://www.w3.org/2000/svg"><g style="mix-blend-mode:multiply" opacity=".12" clip-path="url(#clip0_2234_9664)" fill="#FFCF2D"><path d="M143.598 0C64.215 0 0 64.216 0 143.598c0 79.186 64.216 143.599 143.598 143.599 79.186 0 143.599-64.216 143.599-143.599C287 64.215 222.784 0 143.598 0zm0 277.939c-74.261 0-134.34-60.079-134.34-134.341 0-74.261 60.079-134.34 134.34-134.34 74.262 0 134.341 60.079 134.341 134.34 0 74.065-60.276 134.341-134.341 134.341z"/><path d="M143.6 30.926c-62.05 0-112.476 50.427-112.476 112.475 0 62.049 50.427 112.476 112.476 112.476 62.048 0 112.475-50.23 112.475-112.279 0-62.245-50.427-112.672-112.475-112.672zm0 207.814c-52.594 0-95.339-42.745-95.339-95.339 0-52.593 42.745-95.338 95.339-95.338 52.593 0 95.338 42.745 95.338 95.338 0 52.594-42.745 95.339-95.338 95.339z"/></g><defs><clipPath id="clip0_2234_9664"><path fill="#fff" d="M0 0h287v287H0z"/></clipPath></defs></svg>
